X: 2103
T: Loch Leven Castle
P: Loch Leven Castle
C:Traditional
R:Reel (8x32)
B:RSCDS 21-3
Z:Anselm Lingnau <anselm@strathspey.org>
M:C|
L:1/8
K:Am
|:cB|"Am"A2AB AGEG|AGAB cBcd|"C"efga gede|c2G2 G2 cB|\
     "Am"A2AB AGEG|
                   AGAB cBcd|"Am"eaga "E7"gede|"Am"c2A2 A2:|\
  eg|"Am"a2"Dm"ab "Am"ageg|"Am"a^g"Dm"ab "Am"a2=ge|
                                                   "Dm"dega "C"gede|c2G2 G2eg|\
     "Am"a2"Dm"ab "Am"ageg|"Am"a^g"Dm"ab "Am"a2=ge|"Dm"dega "A"ge"E7"de|
                                                                "Am"c2A2 A2ga|\
     "Am"a2"Dm"ab "Am"ageg|"Am"a^g"Dm"ab "Am"a=ge^f|"Em"g^fga gede|
                                                                 "C"c2G2 G2cB|\
     "Am"A2AB AGEG|AGAB cBcd|"Am"ea^ga "E7"=gede|"Am"c2A2 A2|]
%%center Book21/2103-Loch_Leven_Castle-AL.abc

%%sep 1 1 500
%%sep 1 1 500

